X:1
T:Air 36
T:Air 36
T:Gruijtters 1746
C:Gruijtters 1746
%%score 1 2 3
L:1/8
Q:1/4=140
M:4/4
K:C
V:1 treble nm="T1"
V:2 treble nm="T2"
V:3 treble-8 nm="Bt"
V:1
 A2 |"Am" A2 e2 c2 d2 | e4 e2 A2 |"G" B2 d2"Am" c2 B2 | A6 A2 |"F" f2 f2 f2 e2 |"Dm" d4"G" d2 g2 | %7
"Am" c2 c2 c2"G" B2 |"C" c6 :: c2 |"Am" e2 f2"G" g2 G2 |"Am" c4 c2 c2 |"F" f2 e2"Dm" d2 c2 | %13
"E" B6 c2 |"Am" A2 B2 c2 A2 |"Dm" d4 d2 e2 |"Am" c2 d2"E" e2 ^G2 |"Am" A6 :: e2 | %19
"Am" e2 a2"E" a2 ^g2 |"F" a2 gf"Am" e2 e2 | e2 a2 a2"G" g2 |"B" ^f4"Am" e2 :: g2 | %24
"F" f2 e2"Dm" d2 f2 |"Am" e2 de c2 e2 |"Dm" d2 c2"Am" B2 c2 |"G" dcBc"Am" A4 |"Am" ABcd"Em" e2 e2 | %29
"Am" e2 a2"E" ^g4 |"Am" ABcd e2 dc |"E" B4"Am" A2 :| A4 || %33
V:2
 C2 | C2 c2 A2 B2 | c4 c2 F2 | G2 B2 A2 E2 | C6 C2 | d2 c2 d2 c2 | B4 B2 e2 | A2 G2 F2 D2 | E6 :: %9
 A2 | c2 d2 e2 E2 | A4 A2 A2 | d2 c2 B2 A2 | ^G6 A2 | F2 G2 A2 E2 | B4 B2 c2 | A2 B2 ^G2 E2 | C6 :: %18
 c2 | c2 e2 d2 e2 | c2 BA G2 B2 | c2 e2 d2 c2 | B2 ^F2 G2 :: e2 | d2 c2 B2 d2 | c2 Bc A2 c2 | %26
 B2 A2 ^G2 E2 | AEDE C4 | CEAB c2 B2 | c2 f2 e4 | CEAB c2 BA | ^G4 C2 :| C4 || %33
V:3
 z2 | A4 A,2 B,2 | C2 B,2 A,2 C2 | D4 E4 | A2 G2 F2 E2 | D2 E2 F2 D2 | G2 F2 G2 E2 | A,2 E2 F2 G2 | %8
 C6 :: z2 | c4 B4 | A2 G2 F2 E2 | D2 E2 F2 D2 | E2 ^F2 ^G2 A2 | F4 E4 | ^F4 ^G4 | A6 E2 | A,6 :: %18
 z2 | A,2 C2 D2 E2 | A2 B2 c2 B2 | c2 B2 A2 A,2 | B,4 E,2 :: z2 | d2 c2 B2 G2 | c2 B2 A2 c2 | %26
 B2 A2 ^G2 E2 | A4 z4 | A,2 A,B, C2 B,2 | C2 A,2 E2 E2 | C2 B,2 A,2 D2 | E4 A,2 :| A,4 || %33

